svgs/solid/book-journal-whills.svg

<svg xmlns="http://www.w3.org/2000/svg" viewBox="0 0 448 512"><!--! Font Awesome Pro 6.0.0-alpha3 by @fontawesome - https://fontawesome.com License - https://fontawesome.com/license (Commercial License) --><path d="M448 360V24C448 10.74 437.3 0 424 0H96C42.98 0 0 42.98 0 96v320c0 53.02 42.98 96 96 96h328c13.25 0 24-10.75 24-24v-16c0-10.42-6.725-19.06-16-22.38v-67.23C441.3 379.1 448 370.4 448 360zM133.1 160.4l21.25 21.25c3.125 3.125 8.125 3.125 11.25 0s3.125-8.125 0-11.25l-26.38-26.5c10-20.75 26.25-38 46.38-49.25c-17 27.12-11 62.75 14 82.63C185.5 192 180.5 213.1 186.5 232.5c5.875 19.38 22 34.13 41.88 38.25l1.375-32.75L219.4 245.1C218.8 245.5 217.9 245.8 217.1 245.8c-1 0-2-.375-2.75-1c-.75-.875-1.25-1.875-1.25-3c0-.625 .25-1.375 .5-2L222.3 225.5l-18-3.75c-1.75-.375-3.125-2.125-3.125-4s1.375-3.5 3.125-3.875l18-3.75L213.6 195.9C212.8 194.3 213 192.1 214.4 190.9s3.5-1.5 5-.375l12 8.125L236 87.88C236.1 85.63 237.9 84 240 84s3.875 1.625 4 3.875l4.75 112.3l14.12-9.625c.625-.4998 1.5-.625 2.25-.75c1.5 0 2.75 .75 3.5 2s.625 2.875-.125 4.125L260 210.1l17.1 3.75c1.751 .375 3.126 2 3.126 3.875s-1.375 3.625-3.126 4L260 225.4l8.5 14.38c.75 1.25 .875 2.75 .125 4s-2 2-3.5 2c-.75 0-1.625-.25-2.25-.625L250.3 236.5l1.375 34.25c19.88-4.125 36-18.88 41.88-38.25c6-19.38 1-40.63-13.12-55.25c25-19.88 31-55.5 14-82.63c20.25 11.25 36.38 28.5 46.38 49.25l-26.38 26.5c-3.125 3.125-3.125 8.125 0 11.25s8.125 3.125 11.25 0l21.25-21.25C349.9 170.5 352 181 352 192c0 .5-.125 1-.125 1.5l-37.13 32.5C313.1 227.6 312.1 229.8 312 232c.125 1.875 .75 3.75 1.999 5.25C315.6 238.9 317.8 239.9 320 240c1.999 0 3.875-.75 5.25-1.1l23.62-20.63C337.3 267 293.1 304 240 304S142.8 267 131.1 217.4l23.62 20.63C156.3 239.3 158.1 239.9 160 240c3.375 0 6.25-2.125 7.5-5.125c1.125-3.125 .25-6.75-2.25-8.875L128.1 193.5C128.1 193 128 192.5 128 192C128 181 130.1 170.5 133.1 160.4zM384 448H96c-17.67 0-32-14.33-32-32s14.33-32 32-32h288V448z"/></svg>

<svg xmlns="http://www.w3.org/2000/svg" viewBox="0 0 448 512"><!-- Font Awesome Pro 6.0.0-alpha2 by @fontawesome - https://fontawesome.com License - https://fontawesome.com/license (Commercial License) --><path d="M448 360V24C448 10.742 437.254 0 424 0H96C42.98 0 0 42.98 0 96V416C0 469.02 42.98 512 96 512H424C437.254 512 448 501.254 448 488V472C448 461.582 441.275 452.938 432 449.617V382.383C441.275 379.062 448 370.414 448 360ZM133.125 160.375L154.375 181.625C157.5 184.75 162.5 184.75 165.625 181.625S168.75 173.5 165.625 170.375L139.25 143.875C149.25 123.125 165.5 105.875 185.625 94.625C168.625 121.75 174.625 157.375 199.625 177.25C185.5 192 180.5 213.125 186.5 232.5C192.375 251.875 208.5 266.625 228.375 270.75L229.75 238L219.375 245.125C218.75 245.5 217.875 245.75 217.125 245.75C216.125 245.75 215.125 245.375 214.375 244.75C213.625 243.875 213.125 242.875 213.125 241.75C213.125 241.125 213.375 240.375 213.625 239.75L222.25 225.5L204.25 221.75C202.5 221.375 201.125 219.625 201.125 217.75S202.5 214.25 204.25 213.875L222.25 210.125L213.625 195.875C212.75 194.25 213 192.125 214.375 190.875S217.875 189.375 219.375 190.5L231.375 198.625L236 87.875C236.125 85.625 237.875 84 240 84S243.875 85.625 244 87.875L248.75 200.125L262.875 190.5C263.5 190 264.375 189.875 265.125 189.75C266.625 189.75 267.875 190.5 268.625 191.75S269.25 194.625 268.5 195.875L260 210.125L277.999 213.875C279.75 214.25 281.125 215.875 281.125 217.75S279.75 221.375 277.999 221.75L260 225.375L268.5 239.75C269.25 241 269.375 242.5 268.625 243.75S266.625 245.75 265.125 245.75C264.375 245.75 263.5 245.5 262.875 245.125L250.25 236.5L251.625 270.75C271.5 266.625 287.625 251.875 293.5 232.5C299.5 213.125 294.5 191.875 280.375 177.25C305.375 157.375 311.375 121.75 294.375 94.625C314.625 105.875 330.75 123.125 340.75 143.875L314.375 170.375C311.25 173.5 311.25 178.5 314.375 181.625S322.5 184.75 325.625 181.625L346.875 160.375C349.875 170.5 352 181 352 192C352 192.5 351.875 193 351.875 193.5L314.75 226C313.125 227.625 312.125 229.75 312 232C312.125 233.875 312.75 235.75 313.999 237.25C315.625 238.875 317.75 239.875 320 240C321.999 240 323.875 239.25 325.25 238L348.875 217.375C337.25 267 293.125 304 240 304S142.75 267 131.125 217.375L154.75 238C156.25 239.25 158.125 239.875 160 240C163.375 240 166.25 237.875 167.5 234.875C168.625 231.75 167.75 228.125 165.25 226L128.125 193.5C128.125 193 128 192.5 128 192C128 181 130.125 170.5 133.125 160.375ZM384 448H96C78.326 448 64 433.672 64 416S78.326 384 96 384H384V448Z"/></svg>
